X:648
T:Spootiskerry #1
C:Joe Buchanan's Scottish Tome - Page 196.2
I:196 2
Z:Carl Allison
C:Ian Burns
R:Reel
L:1/8
M:4/4
K:G
(DE) | G2 (DE) DEGA B2 (AB) | G2 (DE) GABd | e(ged) B2 (AB) |
G2 (DE) GDEG | DEGA B2 (AB) | g2 (ed) e(dBA) | B2 G2 G2 :|
(ef) | g2 (ed) (ed) B2 | BABG E2 (DE) | GABd e(ged) | B2 A2 A2 (ef) |
g2 (ed) (ed) B2 | BAG E2 (DE) | GABd e(ged) | B2 G2 G2 (ef) |
g2 (ed) (ed) B2 | BABG E2 (DE) | GABd e(ged) | B2 A2 (DE) |
G2 (DE) GDEG | DEGA B2 (AB) | g2 (ed) e(dBA) | B2 G2 G2 |]

